X:1
T:May God Depend on You?
T: Ira Bishop Wilson, 1908
T:May God Depend on You?
T:Public Domain
T:Public Domain
C:Ira Bishop Wilson, 1908
Z:Public Domain
%%score ( 1 2 ) ( 3 4 )
L:1/8
M:4/4
K:C
V:1 treble 
V:2 treble 
V:3 bass 
V:4 bass 
V:1
 [CE]>[DF] | [EG]2 [EG]2 [Ec]3 [GB] | [GB]2 [FA]4 [FA][Fc] | [FB]3 [FA] [FG]2 [B,F]2 | %4
w: 1.~In the|war- fare that is|wag- ing For the|truth and for the|
w: 2.~See, they|come on sa- ble|pin- ions, Come in|strong Sa- tan- ic|
w: 3.~From His|throne the Fa- ther|sees us; An- gels|help us to pre-|
 [CE]6 [CE]>[DF] | [EG]2 [EG]2 [Ec]3 [GB] | [GB]2 [FA]4 [Fc][G^c] | [^Fd]3 [Fc] [FB]2 [Fc]2 | %8
w: right, When the|con- flict fierce is|ra- ging With the|pow- ers of the|
w: might, Pow- ers|come and dark dom-|in- ions From the|re- gions of the|
w: vail; And our|Lead- er true is|Je- sus, And we|shall not, can- not|
 [Fd]6 [Ge]>[Fd] | [Ec]2 [Ec]2 [GB]2 [FA]2 | [EG]6 [Gc]>[Gc] | [Fd]3 [Fd] [Ec]2 [DB]2 | [Ec]6 || %13
w: night, God needs|peo- ple brave and|true; May He|then de- pend on|you?|
w: night. God re-|quires the brave and|true; May He|then de- pend on|you?|
w: fail. Tri- umph|crowns the brave and|true; May the|Lord de- pend on|you?|
"^Refrain" E>G | (E2 E2 c>)B d>c | (F2 F2 [FB]2) G>B | (F2 F2 d>)^c e>d | (E2 E2 [Ec]2) [Ec]>[Ec] | %18
w: May the|Lord * * de- pend on|ty * * is but|due; * * * Say, O|and * * true, That|
w: |||||
w: |||||
 [Ad]2 [Ac]2 [GB]2 [FA]2 | [EG]6 [Gc]>[Gc] | [Fd]3 [Fd] [Ec]2 [DB]2 | [Ec]6 |] %22
w: may de- pend on|you! * *|||
w: ||||
w: ||||
V:2
 x2 | x8 | x8 | x8 | x8 | x8 | x8 | x8 | x8 | x8 | x8 | x8 | x6 || x2 | c4- E2 E2 | B4- x4 | %16
w: ||||||||||||||you? Loy- al-|His|
 d4- F2 F2 | c4- x4 | x8 | x8 | x8 | x6 |] %22
w: spir- it brave|He|||||
V:3
 [C,G,]>[C,G,] | [C,C]2 [C,C]2 [C,G,]3 [E,C] | [F,C]2 [F,C]4 [F,C][A,C] | %3
w: ~ ~|~ ~ ~ ~|~ ~ ~ ~|
 [G,D]3 [G,C] [G,B,]2 G,2 | [C,G,]6 [C,G,]>[C,G,] | [C,C]2 [C,C]2 [C,G,]3 [E,C] | %6
w: ~ ~ ~ ~|~ ~ ~|~ ~ ~ ~|
 [F,C]2 [F,C]4 [F,A,][E,A,] | [D,A,]3 [D,A,] [D,D]2 [D,C]2 | [G,B,]6 G,>G, | G,2 C2 C2 C2 | %10
w: ~ ~ ~ ~|~ ~ ~ ~|~ ~ ~|~ ~ ~ ~|
 (C,2 G,,2 C,2) [E,C]>[E,C] | [F,A,]3 [F,A,] G,2 G,2 | [C,G,]6 || z2 | %14
w: ~ * * ~ ~|the Lord de- pend|Loy-||
 [C,G,]2 [C,G,]2 [C,G,]2 [C,G,]2 | [D,G,]2 [D,G,]2 [D,G,]2 z2 | [G,B,]2 [G,B,]2 [G,B,]2 [G,B,]2 | %17
w: al- ty is but|His due; Say,|O spir- it brave|
 [A,C]2 [A,C]2 [A,C]2 [A,C]>[A,C] | (C2 C2) (C2 C2) | C,2 G,,2 C,2 [E,C]>[E,C] | %20
w: and true, * * *|||
 [F,A,]3 [F,A,] G,2 G,2 | [C,G,]6 |] %22
w: ||
V:4
 x2 | x8 | x8 | x6 G,2 | x8 | x8 | x8 | x8 | x6 G,>G, | C,4 F,4 | C6 x2 | x4 G,2 G,2 | x6 || x2 | %14
w: |||~|||||~ ~|~ ~|May|on you?|||
 x8 | x8 | x8 | x8 | F,4 F,4 | C6 x2 | x4 G,2 G,2 | x6 |] %22
w: ||||||||

